X:1
T:Title
%%score { 1 | 2 }
L:1/8
M:4/4
K:E
V:1 treble nm="Grand Piano"
V:2 bass 
V:1
 z4 z2[Q:1/4=106] E2 | G3 F E2 E2 | [Ge]3 [Ac] [GB]2 G2 | E3 F G2 c2 |[M:7/8] B2 G2 [DF]3 | %5
[M:1/4] E2 |[M:4/4] G3 F E2 E2 | [Ge]3 [Ac] [GB]2 G2 | E3 F G2 [B,EB]2 | %9
[M:7/8] [A,DF]3 [A,DG] [G,E]3 |[M:1/4] B2 |[M:4/4] [Ge]3 [Bd] [Ac]2 [GB]2 | %12
 [Ac]2 [GB]2 [EG]2 [GB]2 | c2 B2 [Ge]2 [EG]2 |[M:7/8] [EG]3 [DF] [DF]3 |[M:1/4] E2 | %16
[M:4/4] G3 F E2 E2 | [Ge]3 [Ac] [GB]2 G2 | E3 F G2 [B,EB]2 |[M:3/4] [A,DF]3 [A,DG] [G,E]2 |] %20
V:2
 z4 z2 [E,G,]2 | [E,B,E]3 [E,A,B,] [E,G,B,]2 [E,G,B,]2 | [E,B,]3 [E,A,] [E,B,]2 [E,B,E]2 | %3
 [E,G,B,]3 [E,A,B,] [E,B,E]2 [E,A,E]2 |[M:7/8] [E,G,E]2 [E,B,E]2 [B,,B,]3 |[M:1/4] [E,G,]2 | %6
[M:4/4] [E,B,E]3 [E,A,B,] [E,G,B,]2 [E,G,B,]2 | [E,B,]3 [E,E] [E,E]2 [E,B,E]2 | %8
 [G,B,]3 [F,B,D] [E,B,E]2 G,,2 |[M:7/8] B,,3 B,, E,3 |[M:1/4] B,2 | %11
[M:4/4] [E,B,]3 [E,B,] [E,E]2 [E,E]2 | [E,E]2 [E,E]2 [E,B,]2 [E,E]2 | %13
 [A,E]2 [G,B,E]2 [E,B,]2 [E,B,]2 |[M:7/8] [B,,B,]3 [B,,B,] [B,,B,]3 |[M:1/4] [E,G,]2 | %16
[M:4/4] [E,B,E]3 [E,A,B,] [E,G,B,]2 [E,G,B,]2 | [E,B,]3 [E,E] [E,E]2 [E,B,E]2 | %18
 [G,B,]3 [F,B,D] [E,B,E]2 G,,2 |[M:3/4] B,,3 B,, E,2 |] %20

